**kern
*staff1
!!pagebreak:original
*I"P1
=1-
*clefG2
*k[f#]
*M3/4
8ff#\L
8ff#\J
4eee\
8ff#\L
8ff#\J
=2
4ddd\
8ff#\L
8ff#\J
4ccc\
=3
4bb\
4.bb\
8bb\
=4
2eee\
4ddd\
=5
4ff#\
4.ff#\
8ff#\
=6
2ddd\
4ccc\
=7
4gg\
4.gg\
8gg\
=8
2ccc\
4bb\
*-
